app/images/icon/question.svg

<svg width="19" height="19" viewBox="0 0 19 19" fill="none" xmlns="http://www.w3.org/2000/svg">
<path d="M7.43225 5.67579L7.43225 5.67578C8.00896 5.12035 8.77226 4.83097 9.57913 4.86154C9.57915 4.86154 9.57916 4.86154 9.57918 4.86154L9.57445 4.98645L7.43225 5.67579ZM7.43225 5.67579C6.86534 6.22182 6.55273 6.95544 6.55273 7.74023C6.55273 8.17606 6.90597 8.5293 7.3418 8.5293C7.77762 8.5293 8.13086 8.17606 8.13086 7.74023C8.13086 7.38792 8.27109 7.05889 8.52692 6.81253C8.79169 6.55759 9.14333 6.42451 9.52002 6.43845C10.214 6.46463 10.7757 7.01967 10.8018 7.69742C10.826 8.33002 10.3893 8.89077 9.76037 9.02875L9.76035 9.02876M7.43225 5.67579L9.76035 9.02876M9.76035 9.02876C9.12386 9.16847 8.67773 9.71979 8.67773 10.3691V11.3262C8.67773 11.762 9.03097 12.1152 9.4668 12.1152C9.90262 12.1152 10.2559 11.762 10.2559 11.3262V10.5312M9.76035 9.02876L9.78716 9.15085C9.20753 9.27808 8.80273 9.77898 8.80273 10.3691V11.3262C8.80273 11.693 9.10001 11.9902 9.4668 11.9902C9.83359 11.9902 10.1309 11.693 10.1309 11.3262V10.4345M10.1309 10.4345L10.1603 10.556C10.1924 10.5482 10.2242 10.5399 10.2559 10.5312M10.1309 10.4345H10.2559V10.5312M10.1309 10.4345L10.2559 10.5312M13.9629 16.8819C14.3357 16.6561 14.4548 16.171 14.229 15.7983L14.229 15.7983C14.0031 15.4255 13.518 15.3064 13.1453 15.5322C12.0495 16.1959 10.789 16.5469 9.5 16.5469C5.61449 16.5469 2.45312 13.3855 2.45312 9.5C2.45312 5.61449 5.61449 2.45312 9.5 2.45312C13.3855 2.45312 16.5469 5.61449 16.5469 9.5C16.5469 10.8891 16.1339 12.2413 15.3519 13.4111C15.1096 13.7734 15.2071 14.2634 15.5692 14.5056L15.5692 14.5057C15.9315 14.7479 16.4216 14.6505 16.6637 14.2882C17.6196 12.8587 18.125 11.2028 18.125 9.5C18.125 7.19646 17.2277 5.03006 15.5988 3.4012C13.9699 1.77233 11.8035 0.875 9.5 0.875C7.19646 0.875 5.03006 1.77233 3.4012 3.4012C1.77233 5.03006 0.875 7.19646 0.875 9.5C0.875 11.8035 1.77233 13.9699 3.4012 15.5988C5.03006 17.2277 7.19646 18.125 9.5 18.125C11.077 18.125 12.6203 17.6952 13.9629 16.8819ZM13.9629 16.8819L13.8981 16.775L13.9629 16.8819C13.9629 16.8819 13.9629 16.8819 13.9629 16.8819ZM8.67773 13.6504C8.67773 14.0862 9.03097 14.4395 9.4668 14.4395C9.90262 14.4395 10.2559 14.0862 10.2559 13.6504C10.2559 13.2146 9.90262 12.8613 9.4668 12.8613C9.03097 12.8613 8.67773 13.2146 8.67773 13.6504Z" fill="#0037A1" stroke="#0037A1" stroke-width="0.25"/>
</svg>

<svg width="19" height="19" fill="none" xmlns="http://www.w3.org/2000/svg">
    <path d="M7.432 5.676a2.91 2.91 0 0 1 2.147-.814l-.005.124-2.142.69Zm0 0a2.844 2.844 0 0 0-.88 2.064.789.789 0 1 0 1.579 0c0-.352.14-.681.396-.927.265-.255.616-.388.993-.375a1.328 1.328 0 0 1 1.282 1.26 1.316 1.316 0 0 1-1.042 1.33M7.432 5.677 9.76 9.029m0 0a1.366 1.366 0 0 0-1.082 1.34v.957a.789.789 0 1 0 1.578 0v-.795M9.76 9.03l.027.122c-.58.127-.984.628-.984 1.218v.957a.664.664 0 1 0 1.328 0v-.892m0 0 .03.122.095-.025m-.125-.097h.125v.097m-.125-.097.125.097m3.707 6.35a.789.789 0 1 0-.818-1.35A7.034 7.034 0 0 1 9.5 16.548 7.055 7.055 0 0 1 2.453 9.5 7.055 7.055 0 0 1 9.5 2.453 7.055 7.055 0 0 1 16.547 9.5c0 1.39-.413 2.741-1.195 3.911a.789.789 0 1 0 1.312.877A8.59 8.59 0 0 0 18.125 9.5a8.57 8.57 0 0 0-2.526-6.099A8.57 8.57 0 0 0 9.5.875a8.57 8.57 0 0 0-6.099 2.526A8.57 8.57 0 0 0 .875 9.5a8.57 8.57 0 0 0 2.526 6.099A8.57 8.57 0 0 0 9.5 18.125c1.577 0 3.12-.43 4.463-1.243Zm0 0-.065-.106.065.107Zm-5.285-3.23a.79.79 0 1 0 1.578 0 .79.79 0 0 0-1.578 0Z" fill="#0037A1" stroke="#0037A1" stroke-width=".25"/>
</svg>
